src/App/SitePart/ProfilePage/img/Pencil.svg

<svg width="39" height="39" viewBox="0 0 39 39" fill="none" xmlns="http://www.w3.org/2000/svg">
<path d="M36.8944 2.16761C34.0815 -0.639203 29.5274 -0.639203 26.7142 2.16761V2.17144L3.35321 25.5299C3.30017 25.5858 3.25735 25.6504 3.22699 25.721C3.21869 25.7386 3.21102 25.7565 3.20463 25.7747C3.19664 25.7926 3.18929 25.8105 3.18322 25.829L0.0210801 38.2433C-0.0373951 38.4676 0.0277904 38.7063 0.191713 38.8702C0.355635 39.0342 0.594329 39.099 0.818644 39.0409L13.2323 35.88C13.2512 35.8749 13.2675 35.865 13.286 35.8586C13.3049 35.8522 13.3234 35.8446 13.3416 35.8362C13.4119 35.8059 13.4765 35.7631 13.5321 35.71L36.8899 12.3509L36.8944 12.3474C39.7018 9.53485 39.7018 4.98017 36.8944 2.16761V2.16761ZM35.969 3.09267C38.0865 5.21535 38.2748 8.58838 36.4067 10.9335L28.1291 2.6549C30.4739 0.78689 33.8469 0.975417 35.969 3.09267V3.09267ZM27.1776 3.55951L35.5056 11.8834L33.1596 14.2301L24.8315 5.90236L27.1776 3.55951ZM2.3553 34.3824C3.38836 34.8463 4.21564 35.6733 4.67961 36.7067L1.56157 37.5004L2.3553 34.3824ZM5.95456 36.3801C5.35191 34.8914 4.17122 33.7107 2.6825 33.108L4.16675 27.2688L11.7931 34.8958L5.95456 36.3801ZM13.0694 34.3188L4.74128 25.9926L23.9065 6.82741L32.2342 15.1555L13.0694 34.3188Z" fill="white"/>
</svg>

<svg width="39" height="39" fill="none" xmlns="http://www.w3.org/2000/svg"><path d="M36.894 2.168a7.206 7.206 0 0 0-10.18 0v.003L3.354 25.53a.652.652 0 0 0-.15.245.566.566 0 0 0-.02.054L.02 38.243a.654.654 0 0 0 .798.798l12.413-3.161c.02-.005.036-.015.054-.021a.647.647 0 0 0 .246-.149L36.89 12.35l.004-.003a7.205 7.205 0 0 0 0-10.18zm-.925.925a5.898 5.898 0 0 1 .438 7.84l-8.278-8.278a5.897 5.897 0 0 1 7.84.438zm-8.791.467l8.328 8.323-2.346 2.347-8.328-8.328 2.346-2.342zM2.355 34.382a4.624 4.624 0 0 1 2.325 2.325l-3.118.793.793-3.118zm3.6 1.998a5.931 5.931 0 0 0-3.272-3.272l1.484-5.84 7.626 7.628-5.838 1.484zm7.114-2.061l-8.328-8.326L23.907 6.827l8.327 8.329L13.07 34.319z" fill="#fff"/></svg>
